vsi/warning_dark.svg

<svg viewBox="0 0 16 16" fill="none" xmlns="http://www.w3.org/2000/svg" height="1em" width="1em">
  <path fill-rule="evenodd" clip-rule="evenodd" d="M7.55976 1H8.43976L14.9798 13.26L14.5398 14H1.43976L0.999756 13.26L7.55976 1ZM7.99976 2.28L2.27976 13H13.6998L7.99976 2.28ZM8.62476 12V11H7.37476V12H8.62476ZM7.37476 10V6H8.62476V10H7.37476Z" fill="#FFCC00"/>
</svg>

<svg viewBox="0 0 16 16" fill="none" xmlns="http://www.w3.org/2000/svg" height="1em" width="1em">
  <path fill-rule="evenodd" clip-rule="evenodd" d="M7.56 1h.88l6.54 12.26-.44.74H1.44L1 13.26 7.56 1ZM8 2.28 2.28 13H13.7L8 2.28ZM8.625 12v-1h-1.25v1h1.25Zm-1.25-2V6h1.25v4h-1.25Z" fill="#FC0"/>
</svg>
